X: 107
%
U:~=!turn!
T: Clanranald
C:
O:Scotland
B:Keith Norman MacDonald : "The Skye collection of the best reels & strathspeys extant" : 1887
Z:Ralph Palmer
R:Reel
M:C|
L:1/8
K:E aeolian
G | TE2 EB {/F}GEE^c | {/c}dDDA {/G}FDAF | TE2 (EB) {/F}GEBe | {/G}FDAF BETE :| e | {/f}geTBA {/F}GFE{/f}g | fdATG FEDf |
geTBA {/F}GFEe | {/c}dBAF BEEe | {/f}geTBA {/F}GFEg | fdAG {/G}FEDf | ebfa ef{/^c}de | BdAF BE~E |]


